;FLAVOR:Marlin
;TIME:3939
;Filament used: 9.74464m
;Layer height: 0.35
;MINX:31.517
;MINY:24.734
;MINZ:0.2
;MAXX:218.473
;MAXY:185.262
;MAXZ:10.35
;Generated with Cura_SteamEngine 4.4.1
M82 ;absolute extrusion mode
G21 ; set units to millimeters
G90 ; use absolute positioning
M82 ; absolute extrusion mode
M104 S250 ; set extruder temp
M140 S60 ; set bed temp
M190 S60 ; wait for bed temp
M109 S250 ; wait for extruder temp
G28 W ; home all without mesh bed level
G80 ; mesh bed leveling
G92 E0.0 ; reset extruder distance position
G1 Y-3.0 F1000.0 ; go outside print area
G1 X60.0 E9.0 F1000.0 ; intro line
G1 X100.0 E21.5 F1000.0 ; intro line
G92 E0.0 ; reset extruder distance position
G92 E0
G92 E0
G1 F2100 E-0.8
;LAYER_COUNT:30
;LAYER:0
M107
G0 F10800 X42.624 Y48.326 Z0.2
;TYPE:SKIRT
G1 F2100 E0
G1 F1200 X42.75 Y48.221 E0.00682
G1 X43.072 Y47.963 E0.02397
G1 X43.16 Y47.895 E0.0286
G1 X43.444 Y47.683 E0.04333
G1 X43.514 Y47.631 E0.04696
G1 X44.38 Y47.02 E0.09102
G1 X44.418 Y46.994 E0.09293
G1 X45.23 Y46.438 E0.13385
G1 X47.433 Y44.834 E0.24714
G1 X49.585 Y43.172 E0.36019
G1 X51.702 Y41.44 E0.47391
G1 X53.783 Y39.635 E0.58844
G1 X55.792 Y37.793 E0.70176
G1 X57.776 Y35.865 E0.81677
G1 X59.662 Y33.927 E0.9292
G1 X61.656 Y31.755 E1.05179
G1 X61.738 Y31.669 E1.05673
G1 X61.988 Y31.416 E1.07151
G1 X62.068 Y31.338 E1.07616
G1 X62.377 Y31.046 E1.09383
G1 X62.508 Y30.929 E1.10114
G1 X62.816 Y30.668 E1.11792
G1 X62.898 Y30.6 E1.12235
G1 X63.178 Y30.378 E1.13721
G1 X63.32 Y30.272 E1.14457
G1 X63.597 Y30.076 E1.15868
G1 X63.671 Y30.025 E1.16242
G1 X63.977 Y29.821 E1.17771
G1 X64.143 Y29.717 E1.18585
G1 X64.558 Y29.475 E1.20582
G1 X64.639 Y29.43 E1.20968
G1 X64.914 Y29.28 E1.2227
G1 X65.034 Y29.217 E1.22833
G1 X65.296 Y29.088 E1.24048
G1 X65.413 Y29.033 E1.24585
G1 X65.805 Y28.859 E1.26368
G1 X65.976 Y28.789 E1.27136
G1 X66.392 Y28.632 E1.28985
G1 X66.491 Y28.597 E1.29421
G1 X66.793 Y28.494 E1.30748
G1 X66.963 Y28.441 E1.31488
G1 X67.376 Y28.325 E1.33272
G1 X67.46 Y28.303 E1.33633
G1 X67.813 Y28.214 E1.35146
G1 X68.008 Y28.171 E1.35977
G1 X68.317 Y28.113 E1.37284
G1 X68.4 Y28.098 E1.37634
G1 X68.766 Y28.039 E1.39176
G1 X68.857 Y28.026 E1.39558
G1 X69.643 Y27.922 E1.42854
G1 X69.696 Y27.915 E1.43076
G1 X72.96 Y27.538 E1.56737
G1 X74.55 Y27.379 E1.6338
G1 X74.6 Y27.375 E1.63589
G1 X77.931 Y27.094 E1.77487
G1 X77.984 Y27.089 E1.77708
G1 X79.499 Y26.986 E1.84021
G1 X79.55 Y26.983 E1.84234
G1 X82.678 Y26.82 E1.97256
G1 X85.432 Y26.638 E2.08731
G1 X88.133 Y26.382 E2.2001
G1 X90.837 Y26.047 E2.31338
G1 X93.55 Y25.635 E2.42747
G1 X96.272 Y25.141 E2.54249
G1 X97.954 Y24.797 E2.61386
G1 X98.459 Y24.734 E2.63502
G1 X98.771 Y24.735 E2.64799
G1 X99.241 Y24.759 E2.66756
G1 X99.308 Y24.763 E2.67035
G1 X102.427 Y24.987 E2.80036
G1 X102.475 Y24.991 E2.80236
G1 X103.154 Y25.05 E2.83069
G1 X103.657 Y25.134 E2.8519
G1 X103.953 Y25.223 E2.86475
G1 X105.291 Y25.694 E2.92372
G1 X107.269 Y26.374 E3.01068
G1 X109.882 Y27.197 E3.12458
G1 X112.505 Y27.943 E3.23795
G1 X115.191 Y28.625 E3.35317
G1 X119.109 Y29.475 E3.51985
G1 X121.504 Y29.944 E3.62131
G1 X121.552 Y29.954 E3.62335
G1 X123.049 Y30.271 E3.68697
G1 X123.1 Y30.282 E3.68914
G1 X126.32 Y31.018 E3.82646
G1 X126.37 Y31.029 E3.82859
G1 X127.855 Y31.393 E3.89216
G1 X127.904 Y31.406 E3.89427
G1 X131.085 Y32.239 E4.03098
G1 X131.131 Y32.251 E4.03295
G1 X132.63 Y32.667 E4.09763
G1 X132.683 Y32.682 E4.09992
G1 X135.845 Y33.617 E4.23701
G1 X135.892 Y33.632 E4.23906
G1 X137.396 Y34.102 E4.30457
G1 X137.443 Y34.117 E4.30662
G1 X140.499 Y35.123 E4.44038
G1 X140.551 Y35.141 E4.44267
G1 X142.097 Y35.679 E4.51072
G1 X142.142 Y35.695 E4.51271
G1 X145.181 Y36.803 E4.64719
G1 X145.227 Y36.82 E4.64923
G1 X146.691 Y37.379 E4.71438
G1 X146.741 Y37.398 E4.71661
G1 X149.799 Y38.623 E4.85356
G1 X149.845 Y38.642 E4.85563
G1 X151.259 Y39.234 E4.91937
G1 X151.306 Y39.254 E4.92149
G1 X154.346 Y40.583 E5.05943
G1 X154.393 Y40.604 E5.06157
G1 X155.798 Y41.245 E5.12577
G1 X155.844 Y41.266 E5.12788
G1 X158.759 Y42.651 E5.26205
G1 X158.803 Y42.673 E5.2641
G1 X160.288 Y43.406 E5.33295
G1 X160.335 Y43.43 E5.33514
G1 X163.162 Y44.884 E5.46731
G1 X163.206 Y44.907 E5.46937
G1 X164.666 Y45.686 E5.53817
G1 X164.711 Y45.71 E5.54029
G1 X167.551 Y47.284 E5.67529
G1 X167.592 Y47.308 E5.67726
G1 X168.079 Y47.587 E5.7006
G1 X170.498 Y48.93 E5.81563
G1 X172.944 Y50.199 E5.93019
G1 X175.409 Y51.391 E6.04403
G1 X177.91 Y52.514 E6.15801
G1 X180.402 Y53.55 E6.27021
G1 X183.02 Y54.554 E6.38678
G1 X185.577 Y55.448 E6.4994
G1 X188.164 Y56.273 E6.61229
G1 X190.803 Y57.034 E6.72648
G1 X193.446 Y57.715 E6.83995
G1 X196.125 Y58.326 E6.95419
G1 X198.822 Y58.861 E7.06851
G1 X201.489 Y59.312 E7.18096
G1 X205.507 Y59.848 E7.34949
G1 X207.06 Y60.022 E7.41446
G1 X207.161 Y60.035 E7.41869
G1 X207.515 Y60.086 E7.43356
G1 X207.686 Y60.115 E7.44077
G1 X208.083 Y60.194 E7.4576
G1 X208.178 Y60.215 E7.46165
G1 X208.591 Y60.31 E7.47927
G1 X208.766 Y60.355 E7.48678
G1 X209.232 Y60.49 E7.50695
G1 X209.338 Y60.523 E7.51157
G1 X209.656 Y60.627 E7.52548
G1 X209.82 Y60.685 E7.53271
G1 X210.259 Y60.855 E7.55228
G1 X210.351 Y60.893 E7.55642
G1 X210.741 Y61.058 E7.57402
G1 X210.887 Y61.124 E7.58069
G1 X211.202 Y61.276 E7.59523
G1 X211.296 Y61.323 E7.5996
G1 X211.692 Y61.53 E7.61817
G1 X211.865 Y61.627 E7.62642
G1 X212.306 Y61.893 E7.64783
G1 X212.376 Y61.937 E7.65127
G1 X212.661 Y62.119 E7.66533
G1 X212.807 Y62.218 E7.67266
G1 X213.147 Y62.462 E7.69006
G1 X213.233 Y62.525 E7.69449
G1 X213.566 Y62.781 E7.71195
G1 X213.71 Y62.899 E7.71969
G1 X214.07 Y63.21 E7.73947
G1 X214.138 Y63.27 E7.74324
G1 X214.417 Y63.525 E7.75896
G1 X214.557 Y63.662 E7.7671
G1 X214.909 Y64.025 E7.78812
G1 X214.97 Y64.089 E7.7918
G1 X215.195 Y64.334 E7.80563
G1 X215.312 Y64.469 E7.81306
G1 X215.602 Y64.822 E7.83205
G1 X215.662 Y64.897 E7.83604
G1 X215.904 Y65.21 E7.85249
G1 X216.011 Y65.357 E7.86005
G1 X216.242 Y65.693 E7.877
G1 X216.29 Y65.764 E7.88057
G1 X216.503 Y66.092 E7.89683
G1 X216.602 Y66.256 E7.90479
G1 X216.868 Y66.724 E7.92717
G1 X216.912 Y66.802 E7.93089
G1 X217.084 Y67.125 E7.94611
G1 X217.172 Y67.304 E7.9544
G1 X217.35 Y67.694 E7.97222
G1 X217.381 Y67.764 E7.97541
G1 X217.527 Y68.105 E7.99083
G1 X217.601 Y68.294 E7.99927
G1 X217.763 Y68.749 E8.01935
G1 X217.791 Y68.831 E8.02295
G1 X217.914 Y69.208 E8.03944
G1 X217.966 Y69.386 E8.04715
G1 X218.073 Y69.791 E8.06456
G1 X218.094 Y69.874 E8.06812
G1 X218.191 Y70.285 E8.08568
G1 X218.232 Y70.487 E8.09425
G1 X218.308 Y70.934 E8.1131
G1 X218.32 Y71.014 E8.11646
G1 X218.376 Y71.401 E8.13272
G1 X218.398 Y71.584 E8.14038
G1 X218.433 Y71.986 E8.15716
G1 X218.439 Y72.073 E8.16078
G1 X218.466 Y72.522 E8.17949
G1 X218.472 Y72.717 E8.1876
G1 X218.472 Y73.142 E8.20527
G1 X218.471 Y73.233 E8.20905
G1 X218.459 Y73.661 E8.22685
G1 X218.449 Y73.837 E8.23418
G1 X218.414 Y74.261 E8.25187
G1 X218.404 Y74.363 E8.25613
G1 X218.362 Y74.731 E8.27153
G1 X218.336 Y74.915 E8.27925
G1 X218.25 Y75.413 E8.30026
G1 X218.233 Y75.503 E8.30407
G1 X218.163 Y75.85 E8.31879
G1 X218.122 Y76.027 E8.32634
G1 X218.014 Y76.441 E8.34413
G1 X217.989 Y76.532 E8.34805
G1 X217.597 Y77.874 E8.40618
G1 X216.873 Y80.488 E8.51895
G1 X216.21 Y83.176 E8.63405
G1 X215.623 Y85.873 E8.74881
G1 X215.126 Y88.537 E8.86147
G1 X214.699 Y91.239 E8.9752
G1 X214.35 Y93.931 E9.08806
G1 X214.074 Y96.672 E9.20259
G1 X213.876 Y99.412 E9.31681
G1 X213.756 Y102.126 E9.42975
G1 X213.714 Y104.866 E9.54368
G1 X213.749 Y107.627 E9.65848
G1 X213.86 Y110.339 E9.77133
G1 X214.048 Y113.049 E9.88427
G1 X214.319 Y115.819 E9.99998
G1 X214.653 Y118.464 E10.11082
G1 X215.083 Y121.232 E10.22728
G1 X215.576 Y123.906 E10.34032
G1 X216.146 Y126.568 E10.45351
G1 X216.788 Y129.209 E10.5665
G1 X217.739 Y132.633 E10.71425
G1 X217.985 Y133.461 E10.75016
G1 X218.012 Y133.555 E10.75422
G1 X218.102 Y133.895 E10.76885
G1 X218.142 Y134.067 E10.77619
G1 X218.23 Y134.491 E10.79419
G1 X218.248 Y134.582 E10.79805
G1 X218.315 Y134.959 E10.81397
G1 X218.342 Y135.143 E10.8217
G1 X218.401 Y135.638 E10.84242
G1 X218.412 Y135.743 E10.84681
G1 X218.443 Y136.102 E10.86179
G1 X218.452 Y136.254 E10.86812
G1 X218.468 Y136.661 E10.88506
G1 X218.471 Y136.774 E10.88976
G1 X218.473 Y137.216 E10.90814
G1 X218.468 Y137.403 E10.91591
G1 X218.445 Y137.837 E10.93398
G1 X218.44 Y137.924 E10.9376
G1 X218.406 Y138.349 E10.95533
G1 X218.385 Y138.536 E10.96315
G1 X218.323 Y138.984 E10.98196
G1 X218.309 Y139.078 E10.98591
G1 X218.251 Y139.422 E11.00041
G1 X218.212 Y139.616 E11.00864
G1 X218.098 Y140.108 E11.02964
G1 X218.079 Y140.187 E11.03301
G1 X217.986 Y140.547 E11.04847
G1 X217.937 Y140.716 E11.05579
G1 X217.808 Y141.123 E11.07354
G1 X217.774 Y141.226 E11.07805
G1 X217.643 Y141.596 E11.09437
G1 X217.579 Y141.762 E11.10176
G1 X217.406 Y142.177 E11.12046
G1 X217.369 Y142.262 E11.12431
G1 X217.195 Y142.648 E11.14191
G1 X217.109 Y142.824 E11.15006
G1 X216.902 Y143.218 E11.16856
G1 X216.857 Y143.301 E11.17249
G1 X216.666 Y143.64 E11.18866
G1 X216.578 Y143.786 E11.19575
G1 X216.342 Y144.158 E11.21407
G1 X216.282 Y144.249 E11.2186
G1 X216.054 Y144.583 E11.23541
G1 X215.954 Y144.722 E11.24253
G1 X215.694 Y145.063 E11.26036
G1 X215.633 Y145.141 E11.26448
G1 X215.369 Y145.466 E11.28188
G1 X215.248 Y145.606 E11.28958
G1 X214.95 Y145.933 E11.30797
G1 X214.886 Y146.002 E11.31188
G1 X214.633 Y146.264 E11.32702
G1 X214.501 Y146.393 E11.3347
G1 X214.118 Y146.747 E11.35638
G1 X214.042 Y146.814 E11.36059
G1 X213.754 Y147.064 E11.37645
G1 X213.62 Y147.174 E11.38366
G1 X213.322 Y147.406 E11.39936
G1 X213.244 Y147.466 E11.40345
G1 X212.891 Y147.724 E11.42163
G1 X212.742 Y147.826 E11.42913
G1 X212.369 Y148.068 E11.44762
G1 X212.281 Y148.124 E11.45196
G1 X211.955 Y148.321 E11.46779
G1 X211.8 Y148.409 E11.4752
G1 X211.373 Y148.636 E11.49531
G1 X211.287 Y148.679 E11.49931
G1 X210.933 Y148.854 E11.51572
G1 X210.766 Y148.932 E11.52339
G1 X210.39 Y149.092 E11.54038
G1 X210.309 Y149.124 E11.544
G1 X209.921 Y149.277 E11.56134
G1 X209.739 Y149.343 E11.56939
G1 X209.32 Y149.48 E11.58771
G1 X209.227 Y149.509 E11.59176
G1 X208.843 Y149.622 E11.6084
G1 X208.671 Y149.668 E11.61581
G1 X208.208 Y149.777 E11.63558
G1 X208.12 Y149.796 E11.63933
G1 X207.752 Y149.872 E11.65495
G1 X207.555 Y149.906 E11.66326
G1 X207.114 Y149.969 E11.68178
G1 X207.025 Y149.981 E11.68551
G1 X204.946 Y150.22 E11.77252
G1 X202.239 Y150.578 E11.88604
G1 X199.524 Y151.016 E12.00038
G1 X196.819 Y151.531 E12.11486
G1 X194.17 Y152.113 E12.22762
G1 X191.535 Y152.772 E12.34054
G1 X188.86 Y153.519 E12.45601
G1 X186.263 Y154.327 E12.56909
G1 X183.676 Y155.212 E12.68276
G1 X181.096 Y156.176 E12.79727
G1 X178.576 Y157.202 E12.91039
G1 X176.07 Y158.305 E13.02422
G1 X173.618 Y159.466 E13.13701
G1 X171.154 Y160.721 E13.25198
G1 X167.735 Y162.61 E13.41438
G1 X164.833 Y164.224 E13.55243
G1 X164.787 Y164.249 E13.55461
G1 X163.452 Y164.964 E13.61757
G1 X163.407 Y164.988 E13.61969
G1 X160.445 Y166.515 E13.75824
G1 X160.4 Y166.538 E13.76034
G1 X159.057 Y167.204 E13.82266
G1 X159.011 Y167.226 E13.82478
G1 X156.016 Y168.653 E13.96271
G1 X155.968 Y168.675 E13.96491
G1 X154.543 Y169.326 E14.03004
G1 X154.499 Y169.346 E14.03205
G1 X151.543 Y170.643 E14.16626
G1 X151.497 Y170.663 E14.16834
G1 X149.989 Y171.297 E14.23635
G1 X149.941 Y171.317 E14.23851
G1 X146.962 Y172.514 E14.37199
G1 X146.915 Y172.532 E14.37408
G1 X145.397 Y173.115 E14.44169
G1 X145.349 Y173.133 E14.44382
G1 X142.305 Y174.247 E14.57858
G1 X142.258 Y174.264 E14.58066
G1 X140.769 Y174.783 E14.64622
G1 X140.722 Y174.799 E14.64828
G1 X137.603 Y175.833 E14.7849
G1 X137.552 Y175.849 E14.78712
G1 X136.101 Y176.304 E14.85034
G1 X136.054 Y176.319 E14.85239
G1 X132.866 Y177.265 E14.99065
G1 X132.814 Y177.28 E14.9929
G1 X131.34 Y177.691 E15.05652
G1 X131.294 Y177.703 E15.05849
G1 X128.119 Y178.538 E15.19498
G1 X128.069 Y178.551 E15.19713
G1 X126.541 Y178.927 E15.26255
G1 X126.491 Y178.939 E15.26469
G1 X123.295 Y179.673 E15.40102
G1 X123.25 Y179.683 E15.40294
G1 X121.749 Y180.005 E15.46676
G1 X121.695 Y180.016 E15.46905
G1 X118.88 Y180.57 E15.58833
G1 X116.21 Y181.136 E15.70181
G1 X113.562 Y181.776 E15.81507
G1 X110.92 Y182.493 E15.92888
G1 X108.273 Y183.294 E16.04386
G1 X105.689 Y184.156 E16.15711
G1 X103.99 Y184.766 E16.23216
G1 X103.252 Y184.937 E16.26366
G1 X102.974 Y184.968 E16.27529
G1 X102.848 Y184.98 E16.28055
G1 X99.568 Y185.217 E16.41727
G1 X99.525 Y185.219 E16.41906
G1 X98.796 Y185.262 E16.44942
G1 X98.287 Y185.252 E16.47059
G1 X97.968 Y185.205 E16.48399
G1 X96.253 Y184.862 E16.55671
G1 X93.541 Y184.37 E16.6713
G1 X90.807 Y183.952 E16.78628
G1 X88.116 Y183.62 E16.89901
G1 X85.407 Y183.362 E17.01215
G1 X82.517 Y183.171 E17.13256
G1 X79.764 Y183.031 E17.24717
G1 X79.714 Y183.028 E17.24925
G1 X78.181 Y182.926 E17.31313
G1 X78.128 Y182.922 E17.31534
G1 X74.777 Y182.644 E17.45513
G1 X74.727 Y182.639 E17.45722
G1 X73.228 Y182.491 E17.51985
G1 X73.177 Y182.486 E17.52198
G1 X69.731 Y182.091 E17.66618
G1 X69.686 Y182.085 E17.66807
G1 X68.917 Y181.986 E17.7003
G1 X68.835 Y181.975 E17.70374
G1 X68.628 Y181.943 E17.71245
G1 X68.543 Y181.928 E17.71604
G1 X68.109 Y181.849 E17.73438
G1 X67.919 Y181.809 E17.74245
G1 X67.363 Y181.673 E17.76625
G1 X67.263 Y181.647 E17.77055
G1 X67.044 Y181.586 E17.78
G1 X66.879 Y181.535 E17.78718
G1 X66.475 Y181.399 E17.8049
G1 X66.379 Y181.365 E17.80914
G1 X66.051 Y181.243 E17.82368
G1 X65.877 Y181.172 E17.8315
G1 X65.506 Y181.009 E17.84835
G1 X65.42 Y180.97 E17.85227
G1 X65.127 Y180.831 E17.86575
G1 X64.988 Y180.761 E17.87222
G1 X64.685 Y180.599 E17.88651
G1 X64.589 Y180.546 E17.89107
G1 X64.24 Y180.344 E17.90783
G1 X64.077 Y180.243 E17.91581
G1 X63.697 Y179.992 E17.93474
G1 X63.616 Y179.937 E17.93881
G1 X63.342 Y179.744 E17.95274
G1 X63.218 Y179.652 E17.95916
G1 X62.97 Y179.459 E17.97223
G1 X62.88 Y179.386 E17.97705
G1 X62.573 Y179.129 E17.99369
G1 X62.442 Y179.014 E18.00094
G1 X62.086 Y178.682 E18.02118
G1 X62.005 Y178.603 E18.02588
G1 X61.801 Y178.399 E18.03788
G1 X61.684 Y178.276 E18.04493
G1 X61.386 Y177.945 E18.06345
G1 X59.493 Y175.897 E18.1794
G1 X57.573 Y173.933 E18.29359
G1 X55.619 Y172.045 E18.40655
G1 X53.591 Y170.194 E18.5207
G1 X51.526 Y168.414 E18.63405
G1 X49.411 Y166.691 E18.74747
G1 X47.222 Y165.01 E18.86221
G1 X45.03 Y163.423 E18.97472
G1 X44.408 Y162.999 E19.00602
G1 X44.366 Y162.97 E19.00814
G1 X43.5 Y162.36 E19.05218
G1 X43.424 Y162.304 E19.05611
G1 X43.205 Y162.14 E19.06748
G1 X43.144 Y162.094 E19.07066
G1 X42.826 Y161.844 E19.08747
G1 X42.686 Y161.727 E19.09506
G1 X42.4 Y161.475 E19.11091
G1 X42.334 Y161.416 E19.11459
G1 X42.073 Y161.173 E19.12941
G1 X41.939 Y161.04 E19.13726
G1 X41.701 Y160.791 E19.15158
G1 X41.651 Y160.738 E19.15461
G1 X41.374 Y160.435 E19.17168
G1 X41.237 Y160.275 E19.18044
G1 X41.043 Y160.033 E19.19333
G1 X41 Y159.977 E19.19627
G1 X40.747 Y159.647 E19.21356
G1 X40.639 Y159.499 E19.22117
G1 X40.428 Y159.189 E19.23677
G1 X40.376 Y159.11 E19.2407
G1 X40.183 Y158.808 E19.2556
G1 X40.091 Y158.654 E19.26306
G1 X39.918 Y158.347 E19.27771
G1 X39.876 Y158.27 E19.28135
G1 X39.692 Y157.922 E19.29772
G1 X39.647 Y157.833 E19.30187
G1 X39.13 Y156.778 E19.35071
G1 X39.112 Y156.741 E19.35242
G1 X38.92 Y156.337 E19.37102
G1 X37.663 Y153.866 E19.48628
G1 X36.354 Y151.464 E19.60001
G1 X34.885 Y148.952 E19.72099
G1 X34.627 Y148.397 E19.74644
G1 X34.505 Y148.053 E19.76161
G1 X34.408 Y147.725 E19.77583
G1 X34.344 Y147.458 E19.78725
G1 X34.338 Y147.432 E19.78836
G1 X33.659 Y144.495 E19.91368
G1 X33.648 Y144.447 E19.91573
G1 X33.489 Y143.709 E19.94712
G1 X33.421 Y143.205 E19.96826
G1 X33.419 Y142.892 E19.98128
G1 X33.441 Y142.347 E20.00395
G1 X33.518 Y139.558 E20.11995
G1 X33.516 Y136.842 E20.23287
